src/assets/skills/sass.svg

<svg width="509" height="379" fill="none" xmlns="http://www.w3.org/2000/svg"><path d="M438.4 217.7c-17.7.1-33 4.4-46 10.7-4.7-9.4-9.4-17.6-10.2-23.7-.9-7.1-2-11.4-.9-20 1-8.4 6-20.5 6-21.5 0-.8-1-5.2-11.2-5.3-10.2 0-19 2-20 4.7-1 2.6-3 8.7-4.3 15-1.8 9.3-20.4 42.2-31 59.5a60.6 60.6 0 0 1-7-17.4c-.9-7.1-2-11.4-.9-20 1.1-8.4 6-20.5 6-21.5 0-.8-1-5.2-11.2-5.3-10.2 0-19 2-20 4.7-1 2.6-2 9-4.2 15-2.1 6.2-26.8 61-33.3 75.4-3.2 7.3-6.1 13-8.2 17-2 4 0 .3-.3.7L239 291c-1.4 2.5-3 4.9-3.6 4.9-.5 0-1.5-6.6.2-15.7 3.7-19 12.6-48.8 12.5-49.8 0-.5 1.6-5.8-5.8-8.4-7.2-2.7-9.8 1.8-10.4 1.8-.6 0-1 1.5-1 1.5s8-33.4-15.4-33.4c-14.6 0-34.8 15.9-44.8 30.4l-34 18.5-16.4 9-1.1-1.2c-28.3-30-80.6-51.4-78.5-91.9.8-14.7 6-53.5 100.5-100.4 77.5-38.5 139.5-28 150.3-4.5 15.3 33.6-33.2 96-113.7 105-30.6 3.4-46.8-8.5-50.8-12.9-4.3-4.6-4.9-4.8-6.4-4-2.6 1.4-1 5.6 0 8 2.3 6.3 12.2 17.3 29 22.8 14.8 4.9 50.8 7.5 94.3-9.2 48.8-18.9 86.9-71.2 75.7-115-11.4-44.4-85.4-59-155.3-34.3C122.6 27 77.5 50.2 45 80.4 6.5 116.4.4 147.8 2.9 160.8c9 46.5 73.2 76.8 99 99.2l-3.6 2c-12.9 6.3-61.8 31.8-74 58.9-14 30.6 2 52.6 12.8 55.5 33 9.2 66.8-7.3 85.1-34.4 18.2-27.2 16-62.4 7.7-78.5l-.3-.6 10-5.9 18.6-10.5c-3.1 8.6-5.4 18.8-6.6 33.6-1.4 17.4 5.8 39.9 15.1 48.8 4.2 3.8 9.1 4 12.2 4 10.9 0 15.8-9 21.3-19.8a357 357 0 0 0 12.6-28.4s-7.4 41.2 12.9 41.2c7.4 0 14.8-9.6 18.2-14.5l.6-.9 1.2-1.9v-.2c3-5.1 9.6-16.8 19.5-36.3 12.7-25 25-56.4 25-56.4s1.2 7.7 4.8 20.3c2.2 7.5 7 15.7 10.6 23.7l-4.7 6.5c-2.3 3.2-5 6.6-7.7 10-10.1 12-22.2 25.7-23.8 29.7-1.9 4.6-1.5 8 2.2 10.8 2.7 2 7.4 2.4 12.5 2 9-.6 15.4-2.9 18.6-4.2a67 67 0 0 0 16-8.4c9.9-7.3 16-17.7 15.3-31.5a63.3 63.3 0 0 0-5.8-22.2l2.7-4c15.6-22.8 27.6-47.8 27.6-47.8s1.2 7.7 4.9 20.3c1.9 6.4 5.6 13.4 9 20.3a87.8 87.8 0 0 0-27 34.9c-5.8 16.7-1.3 24.3 7.3 26.1 3.9.8 9.4-1 13.6-2.7 6-2 11.8-5 17-8.8 10-7.3 19.5-17.5 19-31.2-.3-6.3-2-12.6-4.3-18.5 12.5-5.1 28.6-8 49-5.6 44.1 5.1 52.8 32.6 51.1 44a29.5 29.5 0 0 1-14 19.8c-3 1.8-4 2.5-3.7 4 .4 2 1.8 1.9 4.5 1.5 3.6-.6 23.1-9.4 23.9-30.5 1.2-27.2-24.6-56.8-70.4-56.5ZM98.9 332c-14.6 16-35 22-43.7 16.8-9.4-5.4-5.8-28.8 12.1-45.7a233 233 0 0 1 34.4-25.6l9-5.4 1-.6 2.2-1.4a63 63 0 0 1-15 62v-.1Zm106.3-72.1c-5 12.3-15.7 44-22.1 42.2-5.6-1.5-9-25.4-1.1-49.1 4-12 12.3-26.2 17.3-31.7 8-8.9 16.7-11.9 18.9-8.2 2.6 4.7-9.8 39-13 46.8Zm87.8 41.8c-2.2 1.1-4.2 1.9-5 1.3-.8-.4.8-1.9.8-1.9s11-11.7 15.3-17.1l8.6-11v1.2c0 14.2-13.6 23.7-19.7 27.5Zm67.6-15.4c-1.6-1.2-1.4-4.8 4-16.3a61 61 0 0 1 15-19.3c1 3 1.6 5.8 1.5 8.5-.1 17.7-12.8 24.4-20.5 27.1Z" fill="#CF649A"/></svg>

<svg width="509" height="379" viewBox="0 0 509 379" fill="none" xmlns="http://www.w3.org/2000/svg">
<path d="M438.4 217.7C420.7 217.8 405.4 222.1 392.4 228.4C387.7 219 383 210.8 382.2 204.7C381.3 197.6 380.2 193.3 381.3 184.7C382.3 176.3 387.3 164.2 387.3 163.2C387.3 162.4 386.3 158 376.1 157.9C365.9 157.9 357.1 159.9 356.1 162.6C355.1 165.2 353.1 171.3 351.8 177.6C350 186.9 331.4 219.8 320.8 237.1C317.578 231.698 315.216 225.828 313.8 219.7C312.9 212.6 311.8 208.3 312.9 199.7C314 191.3 318.9 179.2 318.9 178.2C318.9 177.4 317.9 173 307.7 172.9C297.5 172.9 288.7 174.9 287.7 177.6C286.7 180.2 285.7 186.6 283.5 192.6C281.4 198.8 256.7 253.6 250.2 268C247 275.3 244.1 281 242 285C240 289 242 285.3 241.7 285.7L239 291C237.6 293.5 236 295.9 235.4 295.9C234.9 295.9 233.9 289.3 235.6 280.2C239.3 261.2 248.2 231.4 248.1 230.4C248.1 229.9 249.7 224.6 242.3 222C235.1 219.3 232.5 223.8 231.9 223.8C231.3 223.8 230.9 225.3 230.9 225.3C230.9 225.3 238.9 191.9 215.5 191.9C200.9 191.9 180.7 207.8 170.7 222.3L136.7 240.8L120.3 249.8L119.2 248.6C90.9 218.6 38.6 197.2 40.7 156.7C41.5 142 46.7 103.2 141.2 56.3C218.7 17.8 280.7 28.3 291.5 51.8C306.8 85.4 258.3 147.8 177.8 156.8C147.2 160.2 131 148.3 127 143.9C122.7 139.3 122.1 139.1 120.6 139.9C118 141.3 119.6 145.5 120.6 147.9C122.9 154.2 132.8 165.2 149.6 170.7C164.4 175.6 200.4 178.2 243.9 161.5C292.7 142.6 330.8 90.3 319.6 46.5C308.2 2.09997 234.2 -12.5 164.3 12.2C122.6 27 77.5 50.2 45 80.4C6.5 116.4 0.400001 147.8 2.9 160.8C11.9 207.3 76.1 237.6 101.9 260L98.3 262C85.4 268.3 36.5 293.8 24.3 320.9C10.3 351.5 26.3 373.5 37.1 376.4C70.1 385.6 103.9 369.1 122.2 342C140.4 314.8 138.2 279.6 129.9 263.5L129.6 262.9L139.6 257L158.2 246.5C155.1 255.1 152.8 265.3 151.6 280.1C150.2 297.5 157.4 320 166.7 328.9C170.9 332.7 175.8 332.9 178.9 332.9C189.8 332.9 194.7 323.9 200.2 313.1C204.81 303.821 209.014 294.345 212.8 284.7C212.8 284.7 205.4 325.9 225.7 325.9C233.1 325.9 240.5 316.3 243.9 311.4L244.5 310.5L245.7 308.6V308.4C248.7 303.3 255.3 291.6 265.2 272.1C277.9 247.1 290.2 215.7 290.2 215.7C290.2 215.7 291.4 223.4 295 236C297.2 243.5 302 251.7 305.6 259.7L300.9 266.2C298.6 269.4 295.9 272.8 293.2 276.2C283.1 288.2 271 301.9 269.4 305.9C267.5 310.5 267.9 313.9 271.6 316.7C274.3 318.7 279 319.1 284.1 318.7C293.1 318.1 299.5 315.8 302.7 314.5C307.7 312.7 313.2 310 318.7 306.1C328.6 298.8 334.7 288.4 334 274.6C333.435 266.908 331.47 259.385 328.2 252.4L330.9 248.4C346.5 225.6 358.5 200.6 358.5 200.6C358.5 200.6 359.7 208.3 363.4 220.9C365.3 227.3 369 234.3 372.4 241.2C360.576 250.345 351.282 262.358 345.4 276.1C339.6 292.8 344.1 300.4 352.7 302.2C356.6 303 362.1 301.2 366.3 299.5C372.392 297.473 378.128 294.504 383.3 290.7C393.3 283.4 402.8 273.2 402.3 259.5C402 253.2 400.3 246.9 398 241C410.5 235.9 426.6 233 447 235.4C491.1 240.5 499.8 268 498.1 279.4C497.303 283.504 495.642 287.391 493.229 290.805C490.815 294.219 487.703 297.08 484.1 299.2C481.1 301 480.1 301.7 480.4 303.2C480.8 305.2 482.2 305.1 484.9 304.7C488.5 304.1 508 295.3 508.8 274.2C510 247 484.2 217.4 438.4 217.7ZM98.9 332C84.3 348 63.9 354 55.2 348.8C45.8 343.4 49.4 320 67.3 303.1C77.9554 293.527 89.4708 284.958 101.7 277.5L110.7 272.1L111.7 271.5L113.9 270.1C120.6 294.2 114.2 315.3 98.9 332.1V332ZM205.2 259.9C200.2 272.2 189.5 303.9 183.1 302.1C177.5 300.6 174.1 276.7 182 253C186 241 194.3 226.8 199.3 221.3C207.3 212.4 216 209.4 218.2 213.1C220.8 217.8 208.4 252.1 205.2 259.9ZM293 301.7C290.8 302.8 288.8 303.6 288 303C287.2 302.6 288.8 301.1 288.8 301.1C288.8 301.1 299.8 289.4 304.1 284L312.7 273V274.2C312.7 288.4 299.1 297.9 293 301.7ZM360.6 286.3C359 285.1 359.2 281.5 364.6 270C368.247 262.62 373.349 256.055 379.6 250.7C380.6 253.7 381.2 256.5 381.1 259.2C381 276.9 368.3 283.6 360.6 286.3Z" fill="#CF649A"/>
</svg>
